source/icons/icon-call.svg

<svg width="32" height="32" viewBox="0 0 32 32" fill="none" xmlns="http://www.w3.org/2000/svg">
<path d="M12.5625 6.5045L11.7021 6.7637C10.936 6.99474 10.2518 7.43981 9.73011 8.04655C9.20841 8.65328 8.87089 9.39642 8.75728 10.1885C8.40088 12.6701 9.19768 15.5717 11.1189 18.8993C13.0353 22.2185 15.1449 24.3569 17.4669 25.2929C18.2129 25.5936 19.0297 25.6737 19.82 25.5237C20.6102 25.3738 21.3408 25 21.9249 24.4469L22.5753 23.8301C22.9976 23.4304 23.2605 22.8909 23.315 22.312C23.3695 21.7331 23.212 21.154 22.8717 20.6825L21.2445 18.4265C21.0245 18.1219 20.7147 17.8938 20.3585 17.7742C20.0024 17.6545 19.6177 17.6493 19.2585 17.7593L16.7973 18.5117L16.7337 18.5237C16.4625 18.5633 15.8361 17.9765 15.0561 16.6253C14.2401 15.2117 14.0721 14.3849 14.2965 14.1713L15.5481 13.0037C16.0058 12.5771 16.3184 12.0178 16.4422 11.4045C16.5659 10.7911 16.4945 10.1544 16.2381 9.5837L15.4437 7.8185C15.2048 7.28731 14.7809 6.86112 14.251 6.61936C13.7211 6.3776 13.1214 6.33678 12.5637 6.5045H12.5625ZM14.3505 8.3105L15.1425 10.0757C15.2967 10.418 15.3399 10.8 15.2658 11.168C15.1918 11.5361 15.0043 11.8717 14.7297 12.1277L13.4745 13.2965C12.6717 14.0573 12.9381 15.3557 14.0181 17.2253C15.0333 18.9845 15.9597 19.8533 16.9557 19.7021L17.1045 19.6709L19.6101 18.9065C19.7298 18.8697 19.8581 18.8713 19.9769 18.9112C20.0957 18.951 20.1991 19.027 20.2725 19.1285L21.8997 21.3845C22.0701 21.6202 22.149 21.9099 22.1219 22.1995C22.0947 22.4891 21.9633 22.7589 21.7521 22.9589L21.1005 23.5757C20.6833 23.9705 20.1615 24.2373 19.5972 24.3443C19.0328 24.4513 18.4496 24.394 17.9169 24.1793C15.8793 23.3585 13.9533 21.4061 12.1593 18.2993C10.3605 15.1853 9.63208 12.5369 9.94528 10.3589C10.0264 9.79302 10.2674 9.26208 10.6401 8.8286C11.0128 8.39512 11.5016 8.07714 12.0489 7.9121L12.9093 7.6529C13.1882 7.56908 13.4881 7.58958 13.7531 7.71057C14.018 7.83157 14.2299 8.0448 14.3493 8.3105H14.3505Z" fill="black"/>
</svg>

<svg viewBox="0 0 32 32" fill="none" xmlns="http://www.w3.org/2000/svg"><path d="m12.56 6.5-.86.26a4.2 4.2 0 0 0-2.94 3.43c-.36 2.48.44 5.38 2.36 8.7 1.92 3.33 4.02 5.47 6.35 6.4a4.2 4.2 0 0 0 4.45-.84l.66-.62a2.4 2.4 0 0 0 .3-3.15l-1.64-2.25a1.8 1.8 0 0 0-1.98-.67l-2.46.75-.07.01c-.27.04-.9-.54-1.67-1.9-.82-1.4-.99-2.24-.76-2.45l1.25-1.17a3 3 0 0 0 .69-3.42l-.8-1.76a2.4 2.4 0 0 0-2.88-1.32Zm1.79 1.81.8 1.77a1.8 1.8 0 0 1-.42 2.05l-1.26 1.17c-.8.76-.53 2.06.55 3.93 1.01 1.75 1.94 2.62 2.94 2.47l.14-.03 2.51-.76a.6.6 0 0 1 .66.22l1.63 2.25a1.2 1.2 0 0 1-.15 1.58l-.65.62a3 3 0 0 1-3.18.6c-2.04-.82-3.97-2.77-5.76-5.88-1.8-3.11-2.53-5.76-2.21-7.94a3 3 0 0 1 2.1-2.45l.86-.26a1.2 1.2 0 0 1 1.44.66Z" fill="#000"/></svg>
